icons/mortar-board-24.svg

<svg xmlns="http://www.w3.org/2000/svg" width="24" height="24" viewBox="0 0 24 24"><path d="M12.292 2.06v-.001l11.25 4.75a.749.749 0 010 1.382L19 10.108V15a.75.75 0 01-.11.391h-.001a2.84 2.84 0 01-.392.482c-.249.256-.625.58-1.163.896-1.08.638-2.776 1.23-5.334 1.23-.673 0-1.286-.041-1.846-.113a.75.75 0 01.192-1.487c.492.063 1.042.1 1.654.1 2.317 0 3.746-.533 4.572-1.021.31-.178.596-.397.849-.65l.079-.085V10.74l-5.208 2.2a.75.75 0 01-.584 0L5.75 10.424v3.17c.502.129.96.391 1.327.758.579.578.923 1.41.923 2.428v4.5a.761.761 0 01-.345.634 2.157 2.157 0 01-.21.117 3.923 3.923 0 01-.52.213A6.121 6.121 0 015 22.532a6.092 6.092 0 01-1.925-.288 4.065 4.065 0 01-.52-.213 1.816 1.816 0 01-.22-.124.757.757 0 01-.335-.624v-4.5c0-1.02.344-1.85.923-2.43a2.904 2.904 0 011.327-.757V9.793L.458 8.19a.75.75 0 010-1.38l11.25-4.75a.75.75 0 01.584 0zM12 11.436L21.322 7.5 12 3.564 2.678 7.5zM5 15c-.377 0-.745.141-1.017.413-.265.265-.483.7-.483 1.368v4.022c.299.105.797.228 1.5.228s1.201-.123 1.5-.228V16.78c0-.669-.218-1.103-.483-1.368A1.433 1.433 0 005 15z"/></svg>

<svg xmlns="http://www.w3.org/2000/svg" width="24" height="24" viewBox="0 0 24 24">
  <defs/>
  <path d="M12.292,2.06 L12.292,2.059 L23.542,6.809 C23.82,6.926 24,7.198 24,7.5 C24,7.802 23.82,8.074 23.542,8.191 L19,10.108 L19,15 C19,15.138 18.962,15.273 18.89,15.391 L18.889,15.391 C18.776,15.566 18.645,15.727 18.497,15.873 C18.248,16.129 17.872,16.453 17.334,16.769 C16.254,17.407 14.558,17.999 12,17.999 C11.327,17.999 10.714,17.958 10.154,17.886 C9.753,17.822 9.476,17.452 9.528,17.049 C9.58,16.647 9.942,16.359 10.346,16.399 C10.838,16.462 11.388,16.499 12,16.499 C14.317,16.499 15.746,15.966 16.572,15.478 C16.882,15.3 17.168,15.081 17.421,14.828 C17.448,14.8 17.474,14.772 17.5,14.743 L17.5,10.74 L12.292,12.94 C12.105,13.019 11.895,13.019 11.708,12.94 L5.75,10.424 L5.75,13.594 C6.252,13.723 6.71,13.985 7.077,14.352 C7.656,14.93 8,15.762 8,16.78 L8,21.28 C7.999,21.536 7.869,21.774 7.655,21.914 C7.587,21.957 7.517,21.996 7.445,22.031 C7.321,22.094 7.148,22.169 6.925,22.244 C6.477,22.392 5.835,22.532 5,22.532 C4.165,22.532 3.523,22.393 3.075,22.244 C2.852,22.169 2.679,22.093 2.555,22.031 C2.452,21.98 2.395,21.947 2.335,21.907 C2.128,21.769 2,21.531 2,21.283 L2,16.783 C2,15.763 2.344,14.933 2.923,14.353 C3.29,13.987 3.748,13.725 4.25,13.596 L4.25,9.793 L0.458,8.19 C0.181,8.072 0.002,7.801 0.002,7.5 C0.002,7.199 0.181,6.928 0.458,6.81 L11.708,2.06 C11.895,1.981 12.105,1.981 12.292,2.06 Z M12,11.436 L21.322,7.5 L12,3.564 L2.678,7.5 Z M5,15 C4.623,15 4.255,15.141 3.983,15.413 C3.718,15.678 3.5,16.113 3.5,16.781 L3.5,20.803 C3.799,20.908 4.297,21.031 5,21.031 C5.703,21.031 6.201,20.908 6.5,20.803 L6.5,16.78 C6.5,16.111 6.282,15.677 6.017,15.412 C5.746,15.145 5.38,14.997 5,15 Z"/>
</svg>
